assets/img/android-logo.svg

<svg width="60" height="60" viewBox="0 0 60 60" fill="none" xmlns="http://www.w3.org/2000/svg">
<path d="M8.32884 19.4355C7.29504 19.4355 6.4179 19.7961 5.69688 20.5171C4.97585 21.2381 4.61523 22.1033 4.61523 23.1131V38.6178C4.61523 39.6529 4.97575 40.5293 5.69688 41.2504C6.4179 41.9715 7.29504 42.3321 8.32884 42.3321C9.36188 42.3321 10.2337 41.9716 10.9435 41.2504C11.652 40.5294 12.0072 39.6529 12.0072 38.6178V23.1131C12.0072 22.1032 11.6467 21.2381 10.9255 20.5171C10.2044 19.7961 9.33866 19.4355 8.32884 19.4355Z" fill="white"/>
<path d="M38.1846 5.51635L40.7448 0.793578C40.9128 0.480911 40.853 0.241148 40.5649 0.0725555C40.2521 -0.0728207 40.0118 0.000843825 39.8439 0.288341L37.2479 5.04887C34.9637 4.03894 32.5477 3.53305 30.0001 3.53305C27.4519 3.53305 25.0357 4.03905 22.7523 5.04887L20.1562 0.288341C19.9875 0.000843825 19.7472 -0.0721697 19.4352 0.0725555C19.1464 0.241908 19.0866 0.480911 19.2553 0.793578L21.8156 5.51635C19.2195 6.84025 17.1519 8.68403 15.6136 11.0517C14.0752 13.4207 13.3057 16.0095 13.3057 18.8226H46.6582C46.6582 16.0101 45.8886 13.4212 44.3503 11.0517C42.8118 8.68403 40.7562 6.84025 38.1846 5.51635ZM23.3831 12.3857C23.1062 12.6632 22.7755 12.8013 22.3911 12.8013C22.006 12.8013 21.682 12.6632 21.4178 12.3857C21.1535 12.1095 21.0213 11.7801 21.0213 11.3944C21.0213 11.0101 21.1535 10.68 21.4178 10.4032C21.682 10.1269 22.0068 9.98884 22.3911 9.98884C22.7755 9.98884 23.1062 10.1269 23.3831 10.4032C23.6593 10.6807 23.798 11.0101 23.798 11.3944C23.7973 11.7795 23.6586 12.1095 23.3831 12.3857ZM38.5809 12.3857C38.3161 12.6632 37.9914 12.8013 37.6077 12.8013C37.2224 12.8013 36.8919 12.6632 36.6155 12.3857C36.3388 12.1095 36.2007 11.7801 36.2007 11.3944C36.2007 11.0101 36.3388 10.68 36.6155 10.4032C36.8919 10.1269 37.2224 9.98884 37.6077 9.98884C37.9921 9.98884 38.316 10.1269 38.5809 10.4032C38.8454 10.6807 38.9774 11.0101 38.9774 11.3944C38.9774 11.7795 38.8453 12.1095 38.5809 12.3857Z" fill="white"/>
<path d="M13.4492 44.1336C13.4492 45.2404 13.8336 46.1773 14.6025 46.9462C15.372 47.715 16.3089 48.0994 17.415 48.0994H20.0834L20.1199 56.2854C20.1199 57.3191 20.4804 58.1969 21.2015 58.918C21.9225 59.6391 22.7883 59.9996 23.7975 59.9996C24.8307 59.9996 25.7083 59.6391 26.4295 58.918C27.1506 58.1969 27.5111 57.3192 27.5111 56.2854V48.1002H32.4869V56.2854C32.4869 57.3191 32.8473 58.1969 33.5684 58.918C34.2896 59.6391 35.1665 59.9996 36.2004 59.9996C37.2335 59.9996 38.1112 59.6391 38.8323 58.918C39.5535 58.1969 39.9139 57.3192 39.9139 56.2854V48.1002H42.6183C43.6998 48.1002 44.6247 47.7157 45.395 46.9468C46.1637 46.178 46.5483 45.2411 46.5483 44.1343V20.119H13.4492V44.1336Z" fill="white"/>
<path d="M51.6709 19.4355C50.6609 19.4355 49.7958 19.7907 49.0747 20.4992C48.3537 21.2089 47.9932 22.0807 47.9932 23.1131V38.6178C47.9932 39.6529 48.3536 40.5293 49.0747 41.2504C49.7958 41.9716 50.6616 42.3321 51.6709 42.3321C52.704 42.3321 53.5817 41.9716 54.3028 41.2504C55.0239 40.5293 55.3843 39.6529 55.3843 38.6178V23.1131C55.3843 22.0806 55.0239 21.2089 54.3028 20.4992C53.5817 19.7907 52.704 19.4355 51.6709 19.4355Z" fill="white"/>
</svg>

<svg xmlns="http://www.w3.org/2000/svg" width="60" height="60" fill="none"><path fill="#fff" d="M8.329 19.436c-1.034 0-1.911.36-2.632 1.081-.721.721-1.082 1.586-1.082 2.596v15.505c0 1.035.36 1.911 1.082 2.632.72.721 1.598 1.082 2.632 1.082 1.033 0 1.905-.36 2.614-1.082.709-.72 1.064-1.597 1.064-2.632V23.113c0-1.01-.36-1.875-1.082-2.596-.72-.72-1.586-1.081-2.596-1.081ZM38.185 5.516l2.56-4.722c.168-.313.108-.553-.18-.721-.313-.146-.553-.072-.721.215l-2.596 4.76A17.727 17.727 0 0 0 30 3.534c-2.548 0-4.964.506-7.248 1.516L20.156.289c-.168-.288-.409-.361-.72-.216-.29.169-.35.408-.18.72l2.56 4.723c-2.596 1.324-4.664 3.168-6.202 5.536-1.539 2.369-2.308 4.957-2.308 7.77h33.352c0-2.812-.77-5.4-2.308-7.77-1.538-2.368-3.594-4.212-6.165-5.536Zm-14.802 6.87a1.352 1.352 0 0 1-.992.415 1.29 1.29 0 0 1-.973-.415 1.382 1.382 0 0 1-.397-.992c0-.384.133-.714.397-.99.264-.277.589-.415.973-.415.385 0 .715.138.992.414.276.278.415.607.415.991 0 .386-.14.716-.415.992Zm15.198 0c-.265.277-.59.415-.973.415a1.35 1.35 0 0 1-.992-.415 1.35 1.35 0 0 1-.415-.992c0-.384.138-.714.414-.99.277-.277.607-.415.993-.415.384 0 .708.138.973.414.264.278.396.607.396.991 0 .386-.132.716-.396.992ZM13.45 44.134c0 1.106.384 2.043 1.152 2.812.77.769 1.707 1.153 2.813 1.153h2.668l.037 8.186c0 1.034.36 1.912 1.081 2.633.721.721 1.587 1.082 2.596 1.082 1.034 0 1.911-.36 2.633-1.082.72-.721 1.081-1.599 1.081-2.633V48.1h4.976v8.185c0 1.034.36 1.912 1.081 2.633C34.29 59.639 35.167 60 36.2 60c1.033 0 1.911-.36 2.632-1.082.721-.721 1.082-1.599 1.082-2.633V48.1h2.704c1.082 0 2.007-.384 2.777-1.153.769-.769 1.153-1.706 1.153-2.813V20.12H13.45v24.015ZM51.67 19.436c-1.01 0-1.874.355-2.595 1.063-.721.71-1.082 1.582-1.082 2.614v15.505c0 1.035.36 1.911 1.082 2.632.72.722 1.587 1.082 2.596 1.082 1.033 0 1.91-.36 2.632-1.082.72-.72 1.081-1.597 1.081-2.632V23.113c0-1.032-.36-1.904-1.081-2.614-.721-.708-1.599-1.063-2.632-1.063Z"/></svg>
